!!! Genre: Bach WTC1 Prelude 15
!!! Title: WTC1 Prelude 15
!!! Number: 4
!!! Level: 1
**kern	**fb	**text
*clefF4	*clefF4	*
*k[f#]	*k[f#]	*
*met(c)	*met(c)	*
*G:	*G:	*
=13	=	=
4.D	5 3	.
8C	.	.
2BB	5-	5n
=14	=	=
2C	7 5 4 2	.
.	5 3	.
2C#	5-	5n
=15	=	=
2D	#7 5 4 2	.
.	5 3	.
2D	7n	.
=16	=	=
4.G	7 5 4 2	.
.	5 3	.
8F	.	.
8EL	5	.
8CJ	6	.
8DL	5	.
8BBJ	6	.
=17	=	=
8CL	5	.
8AAJ	6	.
8BBL	5	.
8GGJ	6	.
8AAL	5	.
8FF#J	6	.
8GGL	5	.
8EEJ	6	.
=18	=	=
8FF#L	5	.
8DDJ	6	.
8EEL	6 5	.
8FF#J	5-	5n
8GGL	5 3	.
8EJ	5 3	.
8CL	6	.
8DJ	5 3	.
=19	=	=
1GG;	.	.
=||	=|	=||
*-	*-	*-
